X: 12
T: Humours Of Tulla, The
Z: Moulouf
S: https://thesession.org/tunes/141#setting48620
R: reel
M: 4/4
L: 1/8
K: Dmaj
d3A BdAB|dzfd edBc|d3A BdAe|faba f~e3|
d3A BdAB|dzfd egfe|d3A BdAe|faba f~e3||
f2de f~e3|fede faba|f~e3 fedB|ABde f~e3|
f2de f~e3|fede faba|f2ag fedB|ABde f3e||

